!!!OTL: ICH WEISS NICHT BIN ICH REICH ODER ARM
!!!ARE: Europa, Mitteleuropa, Deutschland, Schlesien; Franken; Baden; Hessen
!!!SCT: E1374
!!!YEM: Copyright 1995, estate of Helmut Schaffrath.
**kern
*ICvox
*Ivox
*M4/4
*k[f#]
*G:
{4d
=1
4g
4b
4dd
8b
8g
=2
4f#
4a
4cc}
{8a
8f#
=3
4g
4b
4dd
8cc
8b
=4
4b
4a
4r}
{8a
8b
=5
4cc
4cc
8ee
8ee
8dd
8cc
=6
4b
4b
4dd}
{8b
8g
=7
8a
8a
8a
8a
8dd
8cc
8b
8a
=8
4a
4g
4r}
{8a
8b
=9
4cc
4cc
8ee
8ee
8dd
8cc
=10
4b
4b
4dd}
{8b
8g
=11
8a
8a
8a
8a
8dd
8cc
8b
8a
=12
4a
4g
4r}
==
!!!AGN: Staende -, Soldaten -, Kriegs - Lied
!!!ONB: ESAC (Essen Associative Code) Database: ERK3
!!!AMT: simple quadruple
!!!AIN: vox
!!!EED: Helmut Schaffrath
!!!EEV: 1.0
*-
